X:455
T:Paddy Fahy's
T:Paddy Fahey's
T:Fisherstreet
R:jig
C:Paddy Fahy
Z:hn-jig-455
M:6/8
L:1/8
K:Ador
cBA EAB | cBc aed | cBA g2e | dBG Bcd |
cBA EAB | cBc a2g | f/g/af gfe | dBG Bcd :|
|: cBA ~a3 | Ace aed | cBA g2e | dBG Bcd |
cBA ~a3 | Ace a2g | f/g/af gfe | dBG Bcd :|
P:variations
cBA EAB | cBA aed | c2A g2e | dBG Bcd |
cBA EAB | cBA a2g | ~f3 gfe | dBG Bcd :|
|: cBA a^ga | Ace aed | c2A g2e | dBG Bcd |
cBA a^ga | Ace a2g| ~f3 gfe | dBG Bcd :|

